assets/img/braze_icons/pie-chart-04.svg

<svg fill="none" height="24" viewBox="0 0 24 24" width="24" xmlns="http://www.w3.org/2000/svg"><g fill="#801ed7"><path d="m7.62546 20.158c-.22208.5496-.33312.8245-.55793.9919-.17944.1337-.46299.2139-.68587.1941-.27922-.0248-.48684-.1779-.90209-.484-2.71699-2.0028-4.47957-5.2256-4.47957-8.86 0-.0285.00011-.057.00033-.0855.00393-.5165.00589-.7747.15334-1.013.11775-.1904.35165-.3691.56622-.4327.26868-.0796.5553-.0039 1.12854.1476l6.92218 1.8289c.30319.0801.45469.1201.54839.2104.0822.0793.1347.1843.149.2976.0162.1291-.0425.2744-.16.5651z"/><path d="m13.0962 2.80627c.0062-.59202.0093-.88803.1573-1.12581.118-.18974.3525-.36801.5669-.43107.2686-.07903.5175-.01283 1.0151.11957 4.701 1.25061 8.1645 5.53636 8.1645 10.63104 0 6.0752-4.9249 11-11 11-.4968 0-.986-.0329-1.4654-.0967-.5106-.068-.76586-.102-.98404-.2781-.17407-.1405-.32247-.3954-.35872-.6161-.04543-.2767.06553-.5513.28747-1.1006l3.44789-8.5339c.0492-.1217.0733-.2504.0728-.3787z"/><path d="m9.3875 1.31213c.50045-.1219.7507-.18285 1.0176-.09819.213.06756.4436.25066.5576.44285.1429.24082.1398.53689.1336 1.12904l-.072 6.88331c-.0037.35126-.0056.52686-.0797.64586-.0649.1043-.166.181-.2839.2155-.1345.0394-.3041-.0061-.6434-.097l-6.64945-1.7817c-.57218-.15332-.85827-.22998-1.05187-.4327-.15446-.16175-.26874-.43357-.27624-.65709-.00941-.28017.11702-.50458.36987-.95339 1.47356-2.61559 3.98618-4.56774 6.97789-5.29649z"/></g></svg>

<svg width="24" height="24" viewBox="0 0 24 24" fill="none" xmlns="http://www.w3.org/2000/svg">
<path d="M7.62546 20.158C7.40338 20.7076 7.29234 20.9825 7.06753 21.1499C6.88809 21.2836 6.60454 21.3638 6.38166 21.344C6.10244 21.3192 5.89482 21.1661 5.47957 20.86C2.76258 18.8572 1 15.6344 1 12C1 11.9715 1.00011 11.943 1.00033 11.9145C1.00426 11.398 1.00622 11.1398 1.15367 10.9015C1.27142 10.7111 1.50532 10.5324 1.71989 10.4688C1.98857 10.3892 2.27519 10.4649 2.84843 10.6164L9.77061 12.4453C10.0738 12.5254 10.2253 12.5654 10.319 12.6557C10.4012 12.735 10.4537 12.84 10.468 12.9533C10.4842 13.0824 10.4255 13.2277 10.308 13.5184L7.62546 20.158Z" fill="#801ED7"/>
<path d="M13.0962 2.80627C13.1024 2.21425 13.1055 1.91824 13.2535 1.68046C13.3715 1.49072 13.606 1.31245 13.8204 1.24939C14.089 1.17036 14.3379 1.23656 14.8355 1.36896C19.5365 2.61957 23 6.90532 23 12C23 18.0752 18.0751 23 12 23C11.5032 23 11.014 22.9671 10.5346 22.9033C10.024 22.8353 9.76874 22.8013 9.55056 22.6252C9.37649 22.4847 9.22809 22.2298 9.19184 22.0091C9.14641 21.7324 9.25737 21.4578 9.47931 20.9085L12.9272 12.3746C12.9764 12.2529 13.0005 12.1242 13 11.9959L13.0962 2.80627Z" fill="#801ED7"/>
<path d="M9.3875 1.31213C9.88795 1.19023 10.1382 1.12928 10.4051 1.21394C10.6181 1.2815 10.8487 1.4646 10.9627 1.65679C11.1056 1.89761 11.1025 2.19368 11.0963 2.78583L11.0243 9.66914C11.0206 10.0204 11.0187 10.196 10.9446 10.315C10.8797 10.4193 10.7786 10.496 10.6607 10.5305C10.5262 10.5699 10.3566 10.5244 10.0173 10.4335L3.36785 8.6518C2.79567 8.49848 2.50958 8.42182 2.31598 8.2191C2.16152 8.05735 2.04724 7.78553 2.03974 7.56201C2.03033 7.28184 2.15676 7.05743 2.40961 6.60862C3.88317 3.99303 6.39579 2.04088 9.3875 1.31213Z" fill="#801ED7"/>
</svg>
